build/img/sprite/users-alt.svg

<svg xmlns="http://www.w3.org/2000/svg" data-name="Layer 1" viewBox="0 0 24 24" width="512" height="512"><path d="M12 16a4 4 0 1 1 4-4 4 4 0 0 1-4 4Zm0-6a2 2 0 1 0 2 2 2 2 0 0 0-2-2Zm6 13a6 6 0 0 0-12 0 1 1 0 0 0 2 0 4 4 0 0 1 8 0 1 1 0 0 0 2 0Zm0-15a4 4 0 1 1 4-4 4 4 0 0 1-4 4Zm0-6a2 2 0 1 0 2 2 2 2 0 0 0-2-2Zm6 13a6.006 6.006 0 0 0-6-6 1 1 0 0 0 0 2 4 4 0 0 1 4 4 1 1 0 0 0 2 0ZM6 8a4 4 0 1 1 4-4 4 4 0 0 1-4 4Zm0-6a2 2 0 1 0 2 2 2 2 0 0 0-2-2ZM2 15a4 4 0 0 1 4-4 1 1 0 0 0 0-2 6.006 6.006 0 0 0-6 6 1 1 0 0 0 2 0Z"/></svg>

<?xml version="1.0" encoding="UTF-8"?>
<svg xmlns="http://www.w3.org/2000/svg" id="Layer_1" data-name="Layer 1" viewBox="0 0 24 24" width="512" height="512"><path d="M12,16a4,4,0,1,1,4-4A4,4,0,0,1,12,16Zm0-6a2,2,0,1,0,2,2A2,2,0,0,0,12,10Zm6,13A6,6,0,0,0,6,23a1,1,0,0,0,2,0,4,4,0,0,1,8,0,1,1,0,0,0,2,0ZM18,8a4,4,0,1,1,4-4A4,4,0,0,1,18,8Zm0-6a2,2,0,1,0,2,2A2,2,0,0,0,18,2Zm6,13a6.006,6.006,0,0,0-6-6,1,1,0,0,0,0,2,4,4,0,0,1,4,4,1,1,0,0,0,2,0ZM6,8a4,4,0,1,1,4-4A4,4,0,0,1,6,8ZM6,2A2,2,0,1,0,8,4,2,2,0,0,0,6,2ZM2,15a4,4,0,0,1,4-4A1,1,0,0,0,6,9a6.006,6.006,0,0,0-6,6,1,1,0,0,0,2,0Z"/></svg>
